svgs/light/nfc.svg

<svg xmlns="http://www.w3.org/2000/svg" viewBox="0 0 448 512"><!--! Font Awesome Pro 6.1.1 by @fontawesome - https://fontawesome.com License - https://fontawesome.com/license (Commercial License) Copyright 2022 Fonticons, Inc. --><path d="M384 32H64C28.65 32 0 60.65 0 96v320c0 35.35 28.65 64 64 64h320c35.35 0 64-28.65 64-64V96C448 60.65 419.3 32 384 32zM416 416c0 17.64-14.36 32-32 32H64c-17.64 0-32-14.36-32-32V96c0-17.64 14.36-32 32-32h320c17.64 0 32 14.36 32 32V416zM352 96h-128C215.2 96 208 103.2 208 112v98.94C189.4 217.6 176 235.2 176 256c0 26.47 21.53 48 48 48s48-21.53 48-48c0-20.83-13.42-38.43-32-45.06V128H352v256H96V128h48C152.8 128 160 120.8 160 112S152.8 96 144 96H96C78.36 96 64 110.4 64 128v256c0 17.64 14.36 32 32 32h256c17.64 0 32-14.36 32-32V128C384 110.4 369.6 96 352 96zM224 272C215.2 272 208 264.8 208 256S215.2 240 224 240s16 7.172 16 16S232.8 272 224 272z"/></svg>

<svg xmlns="http://www.w3.org/2000/svg" viewBox="0 0 448 512"><!--! Font Awesome Pro 6.5.1 by @fontawesome - https://fontawesome.com License - https://fontawesome.com/license (Commercial License) Copyright 2023 Fonticons, Inc. --><path d="M384 64c17.7 0 32 14.3 32 32V416c0 17.7-14.3 32-32 32H64c-17.7 0-32-14.3-32-32V96c0-17.7 14.3-32 32-32H384zM64 32C28.7 32 0 60.7 0 96V416c0 35.3 28.7 64 64 64H384c35.3 0 64-28.7 64-64V96c0-35.3-28.7-64-64-64H64zm0 96V384c0 17.7 14.3 32 32 32H352c17.7 0 32-14.3 32-32V128c0-17.7-14.3-32-32-32H240c-17.7 0-32 14.3-32 32v82.7c-18.6 6.6-32 24.4-32 45.3c0 26.5 21.5 48 48 48s48-21.5 48-48c0-20.9-13.4-38.7-32-45.3V128H352V384H96V128l48 0c8.8 0 16-7.2 16-16s-7.2-16-16-16H96c-17.7 0-32 14.3-32 32zM224 272a16 16 0 1 1 0-32 16 16 0 1 1 0 32z"/></svg>
